!!!COM:	Martini, Johannes
!!!CDT:	~1440///-~1497//
!!!OTL:	Confitemini domino
!!!AGN:	Motet
!!!SCT:	Mar2015
!!!SCA:	Mar2015
!!!voices:	2
**kern	**kern
*staff2	*staff1
*Ivox	*Ivox
*I"Tenor	*I"Superius
*I'T	*I'S
*>[A,B,C,D,E,F,G,H,I,J,K,L,M,N,O,P,Q,R,S,T,U,V,W,X,Y,Z,AA,BB,CC]	*>[A,B,C,D,E,F,G,H,I,J,K,L,M,N,O,P,Q,R,S,T,U,V,W,X,Y,Z,AA,BB,CC]
*>A	*>A
*clefGv2	*clefG2
*k[]	*k[]
*M2/1	*M2/1
*met(C)	*met(C)
=1-	=1-
!!section: Quoniam in eternum
!!!OMD: Quoniam in eternum
!!LO:TX:Z=8:t=Choir 1
1c	1cc
1e	1cc
=2	=2
2e\	2cc\
2e\	2cc\
2e\	2cc\
2e\	2cc\
=3	=3
1e	1cc
1d	1b
=4	=4
2c\	2a/
2c\	2cc\
1d	2b\
.	[2a/
=5	=5
2c\	2a/]
2B\	1g
1A	.
.	2f#i/
=6	=6
0Gl	0gl
=7||	=7||
*>B	*>B
!!LO:TX:Z=8:t=Choir 2
!!section: Confitemini Deo
!!!OMD: Confitemini Deo
1c	1cc
1e	1cc
=8	=8
2e\	2cc\
2e\	2cc\
1e	1cc
=9	=9
1c	2a/
.	2cc\
1d	2b\
.	[2a/
=10	=10
2c\	2a/]
2B\	1g
1A	.
.	2f#i/
=11	=11
0Gl	0gl
=12||	=12||
*>C	*>C
!!LO:TX:Z=8:t=Choir 1
!!section: Confitemini Domino dominorum
!!!OMD: Confitemini Domino dominorum
2e\	2cc\
2e\	2cc\
2e\	2cc\
2e\	2cc\
=13	=13
1e	1cc
2e\	2cc\
2e\	2cc\
=14	=14
1c	2a/
.	1cc
2c\	.
2d\	2b\
=15	=15
1c	1a
1Gl	1gl
=16||	=16||
*>D	*>D
!!section: Qui fecit mirabilia
!!!OMD: Qui fecit mirabilia
!!LO:TX:Z=8:t=Choir 2
2e\	2cc\
2e\	2cc\
1e	1cc
=17	=17
2e\	2cc\
2e\	2cc\
2e\	2cc\
2e\	2cc\
=18	=18
1e	1cc
1c	1a
=19	=19
1d	2b\
.	1a
2c\	.
2B\	[2g/
=20	=20
1A	2g/]
.	2f#i/
1Gl	1gl
=21||	=21||
*>E	*>E
!!LO:TX:Z=8:t=Choir 1
!!section: Qui fecit celos
!!!OMD: Qui fecit celos
1e	1cc
2e\	2cc\
2e\	2cc\
=22	=22
1e	1cc
1e	1cc
=23	=23
1c	1a
2c\	2cc\
2d\	2b\
=24	=24
1c	1a
1Gl	1gl
=25||	=25||
*>F	*>F
!!LO:TX:Z=8:t=Choir 2
!!section: Qui firmavit
!!!OMD: Qui firmavit
1e	1cc
1e	1cc
=26	=26
2e\	2cc\
2e\	2cc\
1e	1cc
=27	=27
1c	2a/
.	2cc\
1d	2b\
.	[2a/
=28	=28
2c\	2a/]
2B\	1g
1A	.
.	2f#i/
=29	=29
0Gl	0gl
=30||	=30||
*>G	*>G
!!section: Qui fecit luminaria
!!!OMD: Qui fecit luminaria
!!LO:TX:Z=8:t=Choir 1
2e\	2cc\
2e\	2cc\
1e	1cc
=31	=31
2e\	2cc\
2e\	2cc\
1c	2a/
.	[2cc\
=32	=32
2c\	2cc\]
2d\	2b\
1c	1a
=33	=33
0Gl	0gl
=34||	=34||
*>H	*>H
!!LO:TX:Z=8:t=Choir 2
!!section: Solem in potestatem
!!!OMD: Solem in potestatem
1e	1cc
1e	1cc
=35	=35
1e	1cc
2e\	2cc\
2e\	2cc\
=36	=36
1e	1cc
1c	1a
=37	=37
1d	2b\
.	1a
2c\	.
2B\	[2g/
=38	=38
1A	2g/]
.	2f#i/
1Gl	1gl
=39||	=39||
*>I	*>I
!!section: Lunam et stellas
!!!OMD: Lunam et stellas
!!LO:TX:Z=8:t=Choir 1
1e	1cc
2e\	2cc\
2e\	2cc\
=40	=40
1e	1cc
1e	1cc
=41	=41
2e\	2cc\
2e\	2cc\
1c	2a/
.	[2cc\
=42	=42
2c\	2cc\]
2d\	2b\
1c	1a
=43	=43
0Gl	0gl
=44||	=44||
*>J	*>J
!!LO:TX:Z=8:t=Choir 2
!!section: Qui percussit Egyptum
!!!OMD: Qui percussit Egyptum
1e	1cc
2e\	2cc\
2e\	2cc\
=45	=45
2e\	2cc\
2e\	2cc\
1e	1cc
=46	=46
1c	1cc
1r	1r
=47	=47
1e	1cc
2e\	2cc\
2e\	2cc\
=48	=48
1e	1cc
1d	2b\
.	[2a/
=49	=49
2c\	2a/]
2B\	1g
1A	.
.	2f#i/
=50	=50
0Gl	0gl
=51||	=51||
*>K	*>K
!!section: Qui eduxit Israel
!!!OMD: Qui eduxit Israel
!!LO:TX:Z=8:t=Choir 1
2e\	2cc\
2e\	2cc\
2e\	2cc\
2e\	2cc\
=52	=52
2e\	2cc\
2e\	2cc\
1e	1cc
=53	=53
2c\	2a/
2c\	2cc\
2d\	2b\
[2c\	[2a/
=54	=54
2c\]	2a/]
2B\	1g
1A	.
.	2f#i/
=55	=55
0Gl	0gl
=56||	=56||
*>L	*>L
!!section: In manu potenti
!!!OMD: In manu potenti
!!LO:TX:Z=8:t=Choir 2
2e\	2cc\
2e\	2cc\
2e\	2cc\
2e\	2cc\
=57	=57
1e	1cc
1c	1cc
=58	=58
1r	1r
1e	1cc
=59	=59
2c\	2a/
2c\	2cc\
1d	2b\
.	[2a/
=60	=60
2c\	2a/]
2B\	1g
1A	.
.	2f#i/
=61	=61
0Gl	0gl
=62||	=62||
*>M	*>M
!!section: Qui divisit
!!!OMD: Qui divisit
!!LO:TX:Z=8:t=Choir 1
1e	1cc
1e	1cc
=63	=63
2e\	2cc\
2e\	2cc\
2d\	2b\
2c\	2a/
=64	=64
1d	1b
1c	1cc
=65	=65
1c	2a/
.	2cc\
1d	2b\
.	[2a/
=66	=66
2c\	2a/]
2B\	1g
1A	.
.	2f#i/
=67	=67
0Gl	0gl
=68||	=68||
*>N	*>N
!!section: Et exudit Israel
!!!OMD: Et exudit Israel
!!LO:TX:Z=8:t=Choir 2
2e\	2cc\
2e\	2cc\
2e\	2cc\
2e\	2cc\
=69	=69
2e\	2cc\
2e\	2cc\
1e	1cc
=70	=70
1c	2a/
.	2cc\
1d	2b\
.	[2a/
=71	=71
2c\	2a/]
2B\	1g
1A	.
.	2f#i/
=72	=72
0Gl	0gl
=73||	=73||
*>O	*>O
!!section: Et excussit Pharaonem
!!!OMD: Et excussit Pharaonem
!!LO:TX:Z=8:t=Choir 1
1e	1cc
1e	1cc
=74	=74
2e\	2cc\
2e\	2cc\
2d\	2b\
2c\	2a/
=75	=75
1d	1b
1c	1cc
=76	=76
1r	1r
1e	1cc
=77	=77
2e\	2cc\
2e\	2cc\
2e\	2cc\
2e\	2cc\
=78	=78
1e	1cc
1c	1a
=79	=79
2c\	2cc\
2d\	2b\
1c	1a
=80	=80
0Gl	0gl
=81||	=81||
*>P	*>P
!!section: Qui percussit reges
!!!OMD: Qui percussit reges
!!LO:TX:Z=8:t=Choir 2
2e\	2cc\
2e\	2cc\
1e	1cc
=82	=82
1c	2a/
.	2cc\
1d	2b\
.	[2a/
=83	=83
2c\	4a/]
.	4g/
2B\	1g
1A	.
.	2f#i/
=84	=84
0Gl	0gl
=85||	=85||
*>Q	*>Q
!!section: Et occidit reges
!!!OMD: Et occidit reges
!!LO:TX:Z=8:t=Choir 1
2e\	2cc\
2e\	2cc\
2e\	2cc\
2c\	2a/
=86	=86
2c\	2cc\
2d\	2b\
1c	1a
=87	=87
0Gl	0gl
=88||	=88||
*>R	*>R
!!LO:TX:Z=8:t=Choir 2
!!section: Seon regem
!!!OMD: Seon regem
2e\	2cc\
2e\	2cc\
1e	1cc
=89	=89
1d	1b
1c	2a/
.	2cc\
=90	=90
1d	2b\
.	1a
2c\	.
2B\	[2g/
=91	=91
1A	2g/]
.	2f#i/
1Gl	1gl
=92||	=92||
*>S	*>S
!!section: Et Og regem
!!!OMD: Et Og regem
!!LO:TX:Z=8:t=Choir 1
1c	1cc
1c	1a
=93	=93
2c\	2cc\
2d\	2b\
1c	1a
=94	=94
0Gl	0gl
=95||	=95||
*>T	*>T
!!LO:TX:Z=8:t=Choir 2
!!section: Et omnia regna
!!!OMD: Et omnia regna
1e	1cc
2e\	2cc\
2e\	2cc\
=96	=96
1e	1cc
1c	1a
=97	=97
1d	2b\
.	1a
2c\	.
2B\	[2g/
=98	=98
1A	2g/]
.	2f#i/
1Gl	1gl
=99||	=99||
*>U	*>U
!!LO:TX:Z=8:t=Choir 1
!!section: Et dedit terram
!!!OMD: Et dedit terram
2e\	2cc\
2e\	2cc\
2e\	2cc\
2e\	2cc\
=100	=100
1e	1cc
2e\	2cc\
2e\	2cc\
=101	=101
1e	1cc
1c	1a
=102	=102
2c\	2cc\
2d\	2b\
1c	1a
=103	=103
0Gl	0gl
=104||	=104||
*>V	*>V
!!section: Hereditatem Israel
!!!OMD: Hereditatem Israel
!!LO:TX:Z=8:t=Choir 2
2e\	2cc\
2e\	2cc\
2e\	2cc\
2e\	2cc\
=105	=105
1e	1cc
2c\	2a/
2c\	2cc\
=106	=106
1d	2b\
.	1a
2c\	.
2B\	[2g/
=107	=107
1A	2g/]
.	2f#i/
1Gl	1gl
=108||	=108||
*>W	*>W
!!section: Quia in humilitate
!!!OMD: Quia in humilitate
!!LO:TX:Z=8:t=Choir 1
1e	1cc
1e	1cc
=109	=109
1e	1cc
2e\	2cc\
2e\	2cc\
=110	=110
2e\	2cc\
2e\	2cc\
2e\	2cc\
2e\	2cc\
=111	=111
1e	1cc
1r	1r
=112	=112
1c	1cc
1d	2b\
.	[2a/
=113	=113
2c\	2a/]
2B\	1g
1A	.
.	2f#i/
=114	=114
0Gl	0gl
=115||	=115||
*>X	*>X
!!LO:TX:Z=8:t=Choir 2
!!section: Et redemit
!!!OMD: Et redemit
2e\	2cc\
2e\	2cc\
2e\	2cc\
2e\	2cc\
=116	=116
1e	1cc
2c\	2a/
2c\	2cc\
=117	=117
1d	2b\
.	1a
2c\	.
2B\	[2g/
=118	=118
1A	2g/]
.	2f#i/
1Gl	1gl
=119||	=119||
*>Y	*>Y
!!LO:TX:Z=8:t=Choir 1
!!section: Qui dat escam
!!!OMD: Qui dat escam
1c	1cc
2e\	2cc\
2e\	2cc\
=120	=120
1e	1cc
1c	1a
=121	=121
1c	1cc
1d	2b\
.	[2a/
=122	=122
2c\	2a/]
2B\	1g
1A	.
.	2f#i/
=123	=123
0Gl	0gl
=124||	=124||
*>Z	*>Z
!!LO:TX:Z=8:t=Choir 2
!!section: Confitemini Deo
!!!OMD: Confitemini Deo
2e\	2cc\
2e\	2cc\
2e\	2cc\
2e\	2cc\
=125	=125
1e	1cc
1d	2b\
.	[2a/
=126	=126
2c\	2a/]
2B\	1g
1A	.
.	2f#i/
=127	=127
0Gl	0gl
=128||	=128||
*>AA	*>AA
!!section: Confitemini Domino dominorum, Quoniam
!!!OMD: Confitemini Domino dominorum, Quoniam
!!LO:TX:Z=8:t=Choir 1
2e\	2cc\
2e\	2cc\
2e\	2cc\
2e\	2cc\
=129	=129
1e	1cc
2e\	2cc\
2e\	2cc\
=130	=130
1e	1cc
2d\	2b\
2e\	2cc\
=131	=131
1f	1dd
1c	1cc
=132	=132
1r	1r
2e\	2cc\
2e\	2cc\
=133	=133
2e\	2cc\
2e\	2cc\
2e\	2cc\
2e\	2cc\
=134	=134
1e	1cc
1e	1cc
=135	=135
2c\	2a/
2c\	2cc\
1d	2b\
.	[2a/
=136	=136
2c\	2a/]
2B\	1g
1A	.
.	2f#i/
=137	=137
0Gl	0gl
=138||	=138||
*>BB	*>BB
!!LO:TX:Z=8:t=Choir 2
!!section: Gloria Patri
!!!OMD: Gloria Patri
1e	1cc
2e\	2cc\
2e\	2cc\
=139	=139
1e	1cc
2d\	2b\
2c\	2a/
=140	=140
2B\	2g/
2c\	1cc
1d	.
.	2b\
=141	=141
1c	1cc
1r	1r
=142	=142
1e	1cc
1e	2cc\
.	2cc\
=143	=143
1e	1cc
1d	2b\
.	[2a/
=144	=144
2c\	2a/]
2B\	1g
1A	.
.	2f#i/
=145	=145
0Gl	0gl
=146||	=146||
*>CC	*>CC
!!section: Sicut erat
!!!OMD: Sicut erat
!!LO:TX:Z=8:t=Choir 1
2e\	2cc\
2e\	2cc\
2e\	2cc\
2e\	2cc\
=147	=147
2e\	2cc\
2e\	2cc\
2e\	2cc\
2e\	2cc\
=148	=148
1e	1cc
2d\	2b\
2c\	2a/
=149	=149
2B\	2g/
2c\	1cc
1d	.
.	2b\
=150	=150
1c	1cc
1r	1r
=151	=151
2e\	2cc\
2e\	2cc\
2e\	2cc\
2e\	2cc\
=152	=152
1e	1cc
1c	2a/
.	2cc\
=153	=153
1d	2b\
.	1a
2c\	.
2B\	[2g/
=154	=154
1A	2g/]
.	2f#i/
1Gl	1gl
==	==
*-	*-
!!!RDF**kern: l=long note in original notation
!!!RDF**kern: i=editorial accidental
!!!ENC:	Chris Gage 02-20-2014
!!!END:	2014/10/07/
!!!EED:	Jesse Rodin
!!!EEV:	2014/10/16/
!!!ONB:	Translated from MusicXML and edited on 2014/10/16/ by Craig Sapp
!!muse2ps: C^@{COM}^i2I150v85,150Q16
